X: 1
T:Off in the Morning
T:Speed the Plough
R:reel
Z:id:hn-reel-99
M:C|
K:G
~G3B dB~B2|gBfB eBdB|cBAc BAGB|Addc dedB|
~G3B dB~B2|gBfB eBdB|cBAc BAGB|1 ADFA ~G3D:|2 ADFA GABd||
|:~g3f gdBd|gBfB eBdB|cBAc BAGB|Addc defd|
~g3f gdBd|gBfB eBdB|cBAc BAGB|1 ADFA GABd:|2 ADFA ~G3D||
